X:2
T:Manchester (Schottisch)  F 2-
%%MIDI program 21
R:shottishe
M:2/4
L:1/8
K:F %%MIDI gchordon
"F"C>F AF | "C7"E>G Bc | dc BG | "F"dc AF | C>F AF | "C7"E>G Bc | dc BG | "F"FF Fz :| 
|: "F"cF/2A/2 cF | "C7"d/2c/2B/2G/2E2 | BE/2G/2 BE | "F"d/2c/2A/2F/2 C2 | cF/2A/2 cF | "C7"d/2c/2B/2G/2E2 | BE/2G/2 BE | "F"FA Fz :| 
% st05841

